assets/visa.svg

<svg width="48" height="16" viewBox="0 0 48 16" fill="none" xmlns="http://www.w3.org/2000/svg">
<g clip-path="url(#clip0_229_3393)">
<mask id="mask0_229_3393" style="mask-type:luminance" maskUnits="userSpaceOnUse" x="0" y="0" width="48" height="16">
<path d="M47.598 0H0.314453V16H47.598V0Z" fill="white"/>
</mask>
<g mask="url(#mask0_229_3393)">
<path d="M20.8031 15.7697H16.9727L19.3684 0.28125H23.1985L20.8031 15.7697Z" fill="#1B2E3F"/>
<path d="M34.6891 0.659414C33.9336 0.346027 32.7354 0 31.2535 0C27.4711 0 24.8074 2.10896 24.791 5.12411C24.7596 7.34873 26.6981 8.58429 28.1479 9.32604C29.6299 10.084 30.1336 10.5787 30.1336 11.2543C30.1185 12.2919 28.9362 12.7703 27.8334 12.7703C26.3041 12.7703 25.4847 12.5236 24.2395 11.9463L23.7352 11.6989L23.1992 15.1757C24.0975 15.6036 25.7527 15.9833 27.4711 16C31.49 16 34.1066 13.9237 34.1373 10.7105C34.1529 8.94742 33.1293 7.59636 30.9224 6.49243C29.5827 5.78373 28.7623 5.30587 28.7623 4.5808C28.778 3.9216 29.4562 3.24645 30.9685 3.24645C32.2138 3.21333 33.1288 3.52629 33.8219 3.83947L34.1679 4.00395L34.6891 0.659414Z" fill="#1B2E3F"/>
<path d="M39.7795 10.2826C40.0954 9.39287 41.3092 5.94914 41.3092 5.94914C41.2932 5.98221 41.6236 5.0429 41.8127 4.46626L42.0809 5.80088C42.0809 5.80088 42.8062 9.50829 42.9636 10.2826C42.3651 10.2826 40.5366 10.2826 39.7795 10.2826ZM44.5079 0.28125H41.5451C40.6317 0.28125 39.9375 0.56109 39.5431 1.56632L33.8535 15.7694H37.8726C37.8726 15.7694 38.5346 13.8577 38.6764 13.4461C39.1175 13.4461 43.027 13.4461 43.5944 13.4461C43.7045 13.9898 44.0512 15.7694 44.0512 15.7694H47.5979L44.5079 0.28125Z" fill="#1B2E3F"/>
<path d="M13.775 0.28125L10.0239 10.8428L9.61401 8.7008C8.92052 6.2292 6.74551 3.54386 4.31836 2.20861L7.75426 15.7532H11.8047L17.8252 0.28125H13.775Z" fill="#1B2E3F"/>
<path d="M6.54009 0.280273H0.377481L0.314453 0.59318C5.12163 1.87851 8.30538 4.97665 9.61342 8.70046L8.27371 1.58219C8.05313 0.592968 7.3754 0.31286 6.54009 0.280273Z" fill="#1B2E3F"/>
</g>
</g>
<defs>
<clipPath id="clip0_229_3393">
<rect width="48" height="16" fill="white"/>
</clipPath>
</defs>
</svg>

<svg width="48" height="16" fill="none" xmlns="http://www.w3.org/2000/svg"><g clip-path="url(#a)"><mask id="b" style="mask-type:luminance" maskUnits="userSpaceOnUse" x="0" y="0" width="48" height="16"><path d="M47.598 0H.314v16h47.284V0Z" fill="#fff"/></mask><g mask="url(#b)" fill="#1B2E3F"><path d="M20.803 15.77h-3.83L19.368.28h3.83l-2.395 15.49ZM34.69.66A9.08 9.08 0 0 0 31.253 0c-3.783 0-6.447 2.109-6.463 5.124-.031 2.225 1.907 3.46 3.357 4.202 1.482.758 1.986 1.253 1.986 1.928-.015 1.038-1.198 1.516-2.3 1.516-1.53 0-2.35-.246-3.595-.824l-.504-.247-.536 3.477c.898.428 2.554.807 4.272.824 4.019 0 6.636-2.076 6.666-5.29.016-1.763-1.008-3.114-3.215-4.218-1.34-.708-2.16-1.186-2.16-1.911.016-.66.694-1.335 2.206-1.335 1.246-.033 2.16.28 2.854.593l.346.165.521-3.345Zm5.09 9.623 1.53-4.334c-.017.033.314-.906.503-1.483l.268 1.335s.725 3.707.883 4.482H39.78ZM44.508.28h-2.963c-.913 0-1.608.28-2.002 1.285l-5.69 14.203h4.02s.662-1.911.803-2.323h4.918c.11.544.457 2.323.457 2.323h3.547L44.508.281ZM13.775.281l-3.751 10.562-.41-2.142c-.693-2.472-2.868-5.157-5.296-6.492l3.436 13.544h4.05L17.826.281h-4.05Z"/><path d="M6.54.28H.377L.314.593C5.122 1.88 8.305 4.977 9.614 8.7l-1.34-7.118C8.054.593 7.375.312 6.54.28Z"/></g></g><defs><clipPath id="a"><path fill="#fff" d="M0 0h48v16H0z"/></clipPath></defs></svg>
